X:845
T:Brolum, The
C:Dr Charles Bannaty
S:West Edinburgh Folk Group
Z:Nigel Gatherer
M:4/4
L:1/8
K:A
f | e2 ce fefa | A2 cB ceef |1 e2 ce fefa | B2 ce fBBf :|
  |2 ecae f2 ec | B2 cB A3 :: e | A2 cA eAcA | A2 cB ceef 
|1 A2 cA eAcA | B2 ce fBBe :|2 ecae f2 ec | B2 cB A3 :|
e | a2 af e2 ce | A2 cB ceef |1 a2 af e2 ce | B2 ce fBBe :|
  |2 ecae f2 ec | B2 cB A3 :: e | AAAc AAAc | A2 cB ceef 
|1 AAAc AAAc | B2 ce fBBe :|2 ecae f2 ec | B2 cB A3 :|
